X: 03034
T: The GINGERBREAD HOUSE
C: Bob McQuillen 13 Ma4 77
B: Bob's Note Book 03 #34
R: reel, polka
%D:1977
Z: 2020 John Chambers <jc:trillian.mit.edu>
M: C
L: 1/8
K: A
EF \
| A2c2 cdcB | A2e2 e2ed | c2A2 ABcA | BcBA F2EF |\
| A2c2 cdcB | A2e2 e2ed | c2A2 ABcA | B4   A2  :|
|: cd \
| e2e2 f2cd | e2e2 f2ed | cdec A2c2 | BAGF E2cd |\
| e2e2 f2cd | e2ea f2ed | cdec ABcA | BABc A2  :|
%%begintext align
%% My dear friend [Oaschi] lives in it.
%%endtext

%%sep 1 1 500

%%sep 1 1 500

